X: 38622
T: Stool Of Repentance, The
R: jig
M: 6/8
K: Amajor
|:cAA eAA|cAA edc|dBB fBB|dBB fed|
cAA eAA|cAA aec|def fga|fac B2A:|
|:a2e c2e|agf edc|aff f2e|fag f2e|
a2e c2e|agf edc|def fga|fac B2A:|

